X:1
T:God Be in My Head
T:God Be in My Head
T:Henry Walford Davies, circa 1910
T:Public Domain Courtesy of the Cyber Hymnal™
C:Henry Walford Davies, circa 1910
Z:Public Domain
Z:Courtesy of the Cyber Hymnal™
%%score ( 1 2 ) ( 3 4 )
L:1/8
M:3/2
K:A
V:1 treble 
V:2 treble 
V:3 bass 
V:4 bass 
V:1
 [CE]3 [CE] [CE]2 [^Dc]2 | [EB]6 z | [CE]3 [CE] [CE]2 [^Dc]2 [EB]4 | %3
 [EG]2 F[EG] [^DB]2 [CG]2 [DF]2 E2 | [CE]3 [CE] [CE]2 [^Dc]2 | [EB]2 [EG]2 [^DB]2 [CG]2 [DF]2 E2 | %6
 [CE]3 [CE] [CE]2 [Ec]2 | [EB]2 [CA]2 [Cc]2 [DA]2 [B,G]4 [A,F]4 | [CE]3 [CE] [CE]2 [Ec]2 | %9
 [=GB]6 [EA]2 [Dd]2 [DA]2 | =G4 [DF]4 [CE]3 [CE] [CF]2 [FA][EG] [DF]4 | [DF]3 [DF] [D=G]2 [DF]2 | %12
 [B,E]4 [CE]8 |] %13
V:2
 x8 | x7 | x12 | x12 | x8 | x12 | x8 | x16 | x8 | x12 | D2 C2 x7 C2 x7 | x8 | x12 |] %13
V:3
 [A,,E,]3 [A,,E,] [A,,E,]2 [A,,F,]2 | [E,G,]6 z | [A,,E,]3 [A,,E,] [A,,E,]2 [A,,F,]2 [E,G,]4 | %3
 [E,B,]2 [^D,B,][E,B,] [G,B,]2 [E,C]2 [B,,A,]2 [E,G,]2 | [A,,E,]3 [A,,E,] [A,,E,]2 [A,,F,]2 | %5
 [E,G,]2 [E,B,]2 [G,B,]2 [E,C]2 [B,,A,]2 [E,G,]2 | [A,,E,]3 [A,,E,] [A,,E,]2 [A,,F,]2 | %7
 [E,G,]2 [E,A,]2 [^E,G,]2 F,2 F,2 E,2 [F,,F,]4 | [A,,E,]3 [A,,E,] [A,,E,]2 [A,,E,A,]2 | %9
 [A,,E,C]6 [=G,C]2 [F,D]2 [D,F,]2 | %10
 [A,,E,A,]4 [D,F,A,]4 [A,,E,A,]3 [A,,E,A,] [A,,F,A,]2 A,=G, [D,F,A,]4 | %11
 [D,F,A,]3 [D,F,A,] [B,,=G,B,]2 [D,F,A,]2 | A,2 G,2 [A,,E,A,]8 |] %13
V:4
 x8 | x7 | x12 | x12 | x8 | x12 | x8 | x8 C,4 x4 | x8 | x12 | x14 A,,2 x4 | x8 | E,4 x8 |] %13

